X: 1
T: Farewell To Philip Lane
C: Michael Hynes
M: 4/4
L: 1/8
R: reel
D: Michael Hynes &amp; Denis Liddy - Waifs and Strays
K: Fmaj
AF~F2 AFcF|AFFG AGG2|AF~F2 AFcG|(3Acd cA ~G3z:|
c3d cAAG|FGAG GFFA|c2 (3Acd cAAG|FGAF F~G2A|
c2 (3Acd cAAG|FGAG GFFA|cGAd dcAG|FGAF ~G3c||
